X: 080586
T: Hundred Pipers
S: J. O'Brien: "Irish Folk Dance Music" 
Z: B.Black
M: 6/8
L: 1/8
R: jig 
K: A
B | c2 E EDE | F2 A A2 f | e2 c cBA | BcB BAB |
c2 E EDE | F2 A A2 f | e2 c BAB | A3 A2 :|
B | c2 e ece | f2 a agf | e2 c cBA | BcB BAB |
c2 e ece | f2 a agf | e2 c BAB | A3 A2 :|
